svgs/thin/grip-lines-vertical.svg

<svg xmlns="http://www.w3.org/2000/svg" viewBox="0 0 192 512"><!-- Font Awesome Pro 6.0.0-alpha2 by @fontawesome - https://fontawesome.com License - https://fontawesome.com/license (Commercial License) --><path d="M152 40V472C152 476.406 155.594 480 160 480S168 476.406 168 472V40C168 35.594 164.406 32 160 32S152 35.594 152 40ZM40 472V40C40 35.594 36.406 32 32 32S24 35.594 24 40V472C24 476.406 27.594 480 32 480S40 476.406 40 472Z"/></svg>

<svg xmlns="http://www.w3.org/2000/svg" viewBox="0 0 192 512"><!--! Font Awesome Pro 6.4.0 by @fontawesome - https://fontawesome.com License - https://fontawesome.com/license (Commercial License) Copyright 2023 Fonticons, Inc. --><path d="M32 32c-4.4 0-8 3.6-8 8l0 432c0 4.4 3.6 8 8 8s8-3.6 8-8L40 40c0-4.4-3.6-8-8-8zm128 0c-4.4 0-8 3.6-8 8l0 432c0 4.4 3.6 8 8 8s8-3.6 8-8l0-432c0-4.4-3.6-8-8-8z"/></svg>
